app/assets/images/icon-voucher.svg

<svg width="72" height="80" viewBox="0 0 72 80" fill="none" xmlns="http://www.w3.org/2000/svg">
<path d="M53.6103 24.659C53.4585 20.0526 53.374 15.4325 53.4193 10.8238C53.421 10.6186 53.3881 10.4375 53.3418 10.2668C53.4328 9.26259 52.8418 8.20193 51.5548 8.23569C35.3194 8.66143 19.0878 8.0259 2.85158 8C1.5002 7.99769 0.909219 9.18475 1.07585 10.2257C1.02143 10.4069 0.984749 10.6018 0.986907 10.8238C1.2323 30.1972 1.89774 58.034 1.91916 77.4113C1.91916 77.8449 2.04233 78.1988 2.23963 78.4775C2.35894 79.2993 2.9493 80.0257 4.01644 79.9991C11.034 79.8254 18.0544 79.7119 25.0669 79.3682C31.3161 79.0622 39.1053 79.4724 45.0783 77.4324C47.1933 76.7098 49.0859 75.6424 50.7078 74.0963C53.6728 71.2698 54.685 67.476 54.9401 63.4777C55.1858 59.6377 54.7334 55.6104 54.6434 52.0725C54.4119 42.9327 53.9109 33.797 53.6103 24.659Z" fill="#FFBA02"/>
<path d="M61.6103 16.659C61.4585 12.0526 61.374 7.43248 61.4193 2.82375C61.421 2.61859 61.3881 2.43747 61.3418 2.26683C61.4328 1.26259 60.8418 0.201931 59.5548 0.235688C43.3194 0.661432 27.0878 0.0258994 10.8516 3.37236e-06C9.5002 -0.00230878 8.90922 1.18475 9.07585 2.22568C9.02143 2.40695 8.98475 2.60179 8.98691 2.82375C9.2323 22.1972 9.89774 50.034 9.91916 69.4113C9.91916 69.8449 10.0423 70.1988 10.2396 70.4775C10.3589 71.2993 10.9493 72.0257 12.0164 71.9991C19.034 71.8254 26.0544 71.7119 33.0669 71.3682C39.3161 71.0622 47.1053 71.4724 53.0783 69.4324C55.1933 68.7098 57.0859 67.6424 58.7078 66.0963C61.6728 63.2698 62.685 59.476 62.9401 55.4777C63.1858 51.6377 62.7334 47.6104 62.6434 44.0725C62.4119 34.9327 61.9109 25.797 61.6103 16.659ZM51.337 52.819C50.1951 52.8253 49.0905 53.7177 49.6009 55.0874C50.6278 57.8443 51.0975 61.2679 49.5187 63.9041C47.6087 67.0922 44.2015 67.0053 40.9625 67.4139C38.9807 67.6636 36.8751 67.5314 34.8776 67.5886C33.3243 67.6324 13.6423 68.1122 13.6423 68.189C13.5958 49.5379 12.9794 22.4252 12.7301 3.77697C27.7202 3.84187 42.7057 4.35655 57.6951 4.03609C57.6442 17.7445 58.9843 39.8798 59.0759 53.5833C56.7503 52.8506 54.3474 52.5399 51.8654 52.7059C51.6712 52.7173 51.499 52.7618 51.337 52.819ZM52.8015 65.5651C54.3067 63.001 54.6831 59.8521 53.8996 56.4409C55.7125 56.5114 57.5003 56.8613 59.1934 57.579C59.2005 57.601 59.2051 57.6237 59.2129 57.644C58.6642 61.6866 56.1062 64.1672 52.8015 65.5651Z" fill="black"/>
<path d="M49.49 34.2842H22.0314C19.1695 34.2842 19.1695 38.7657 22.0314 38.7657H49.4902C52.3536 38.7657 52.3536 34.2842 49.49 34.2842Z" fill="black"/>
<path d="M49.49 44.1439H22.0314C19.1695 44.1439 19.1695 48.625 22.0314 48.625H49.4902C52.3536 48.625 52.3536 44.1439 49.49 44.1439Z" fill="black"/>
<path d="M49.4898 25.3208H20.922C18.0596 25.3208 18.0596 29.8024 20.922 29.8024H49.4908C52.3534 29.8024 52.3534 25.3208 49.4898 25.3208Z" fill="black"/>
<path d="M20.6997 19.4949C25.8024 19.2879 44.1618 19.271 49.2684 19.2702C52.1301 19.2702 52.1309 14.7882 49.2684 14.7889C44.1618 14.7897 25.8024 14.8057 20.6997 15.0132C17.8482 15.1287 17.8369 19.6107 20.6997 19.4949Z" fill="black"/>
</svg>

<svg width="72" height="80" fill="none" xmlns="http://www.w3.org/2000/svg"><path d="M53.61 24.659c-.151-4.606-.236-9.226-.19-13.835a2.023 2.023 0 00-.078-.557c.09-1.004-.5-2.065-1.787-2.031C35.319 8.66 19.088 8.026 2.852 8 1.5 7.998.909 9.185 1.076 10.226a1.975 1.975 0 00-.09.598c.246 19.373.912 47.21.933 66.587 0 .434.123.788.32 1.067.12.821.71 1.548 1.777 1.521 7.018-.174 14.038-.287 21.05-.63 6.25-.307 14.04.103 20.012-1.937 2.115-.722 4.008-1.79 5.63-3.336 2.965-2.826 3.977-6.62 4.232-10.618.246-3.84-.207-7.868-.297-11.406-.231-9.14-.732-18.275-1.033-27.413z" fill="#FFBA02"/><path d="M61.61 16.659c-.151-4.606-.236-9.227-.19-13.835a2.022 2.022 0 00-.078-.557c.09-1.004-.5-2.065-1.787-2.031C43.319.66 27.088.026 10.852 0 9.5-.002 8.909 1.185 9.076 2.226a1.976 1.976 0 00-.09.598c.246 19.373.912 47.21.933 66.587 0 .434.123.788.32 1.067.12.821.71 1.548 1.777 1.521 7.018-.174 14.038-.287 21.05-.63 6.25-.307 14.04.103 20.012-1.937 2.115-.722 4.008-1.79 5.63-3.336 2.965-2.826 3.977-6.62 4.232-10.618.246-3.84-.207-7.868-.297-11.406-.231-9.14-.732-18.275-1.033-27.413zm-10.273 36.16c-1.142.006-2.247.899-1.736 2.268 1.027 2.757 1.496 6.18-.082 8.817-1.91 3.188-5.317 3.101-8.556 3.51-1.982.25-4.088.117-6.085.175-1.554.043-21.236.523-21.236.6-.046-18.651-.663-45.764-.912-64.412 14.99.065 29.976.58 44.965.26-.05 13.707 1.29 35.843 1.38 49.546a19.475 19.475 0 00-7.21-.877 1.897 1.897 0 00-.528.113zm1.464 12.746c1.506-2.564 1.882-5.713 1.099-9.124 1.813.07 3.6.42 5.293 1.138.008.022.012.045.02.065-.549 4.043-3.107 6.523-6.412 7.921z" fill="#000"/><path d="M49.49 34.284H22.031c-2.861 0-2.861 4.482 0 4.482h27.46c2.863 0 2.863-4.482-.001-4.482zM49.49 44.144H22.031c-2.861 0-2.861 4.481 0 4.481h27.46c2.863 0 2.863-4.481-.001-4.481zM49.49 25.32H20.922c-2.862 0-2.862 4.482 0 4.482h28.569c2.862 0 2.862-4.481-.001-4.481zM20.7 19.495c5.102-.207 23.462-.224 28.568-.225 2.862 0 2.863-4.482 0-4.481-5.106 0-23.466.017-28.568.224-2.852.116-2.863 4.598 0 4.482z" fill="#000"/></svg>
